images/usecases/scada/lorawan-sigfox.svg

<svg width="92" height="90" viewBox="0 0 92 90" fill="none" xmlns="http://www.w3.org/2000/svg">
<g clip-path="url(#clip0_10346_26576)">
<g filter="url(#filter0_d_10346_26576)">
<mask id="path-3-outside-1_10346_26576" maskUnits="userSpaceOnUse" x="12.401" y="34.8461" width="43.1249" height="43.832" fill="black">
<rect fill="white" x="12.401" y="34.8461" width="43.1249" height="43.832"/>
<path fill-rule="evenodd" clip-rule="evenodd" d="M39.6814 46.7117C40.0977 46.9588 40.6339 46.9151 40.9763 46.5727L41.4325 46.1165C41.823 45.726 42.4562 45.726 42.8467 46.1165L44.3034 47.5732C44.6939 47.9637 44.6939 48.5968 44.3034 48.9874L43.8482 49.4425C43.5059 49.7849 43.4622 50.321 43.7089 50.7376C44.2318 51.6208 44.6443 52.5892 44.923 53.6292C45.2023 54.6716 45.3292 55.719 45.3172 56.7476C45.3116 57.232 45.6175 57.6748 46.0854 57.8002L46.704 57.966C47.2375 58.1089 47.554 58.6572 47.4111 59.1907L46.8779 61.1805C46.735 61.714 46.1867 62.0306 45.6532 61.8876L45.0294 61.7205C44.562 61.5952 44.076 61.8252 43.8388 62.247C42.8198 64.0596 41.3131 65.5967 39.4416 66.6455C39.0186 66.8826 38.7875 67.3693 38.9129 67.8377L39.0792 68.458C39.2221 68.9914 38.9055 69.5398 38.3721 69.6827L36.3822 70.2159C35.8488 70.3588 35.3004 70.0423 35.1575 69.5088L34.9907 68.8864C34.8653 68.4183 34.4222 68.1124 33.9376 68.1183C31.7949 68.1442 29.724 67.5663 27.9371 66.5069C27.5208 66.2601 26.9848 66.3039 26.6426 66.6462L26.1864 67.1024C25.7959 67.4929 25.1627 67.4929 24.7722 67.1024L23.3156 65.6457C22.925 65.2552 22.925 64.622 23.3156 64.2315L23.7685 63.7786C24.1109 63.4361 24.1545 62.8997 23.9075 62.4831C23.3831 61.5985 22.9695 60.6284 22.6903 59.5864C22.4116 58.5461 22.2847 57.5009 22.296 56.4743C22.3014 55.9902 21.9955 55.5476 21.5278 55.4223L20.9064 55.2558C20.3729 55.1129 20.0563 54.5645 20.1993 54.0311L20.7325 52.0413C20.8754 51.5078 21.4237 51.1912 21.9572 51.3342L22.5805 51.5012C23.0482 51.6265 23.5344 51.3963 23.7714 50.9741C24.7895 49.1609 26.2953 47.6231 28.166 46.5733C28.5886 46.3361 28.8195 45.8496 28.694 45.3815L28.5275 44.7601C28.3846 44.2266 28.7012 43.6783 29.2346 43.5353L31.2244 43.0022C31.7579 42.8592 32.3063 43.1758 32.4492 43.7093L32.6153 44.3293C32.7408 44.7975 33.1843 45.1035 33.6691 45.0974C35.8162 45.0701 37.8915 45.6493 39.6814 46.7117Z"/>
</mask>
<path d="M32.6153 44.3293L28.7516 45.3645L32.6153 44.3293ZM22.5805 51.5012L21.5452 55.3649L22.5805 51.5012ZM23.7714 50.9741L20.2836 49.0157L23.7714 50.9741ZM20.7325 52.0413L24.5962 53.0765L20.7325 52.0413ZM21.9572 51.3342L22.9925 47.4705L21.9572 51.3342ZM20.9064 55.2558L19.8711 59.1195L20.9064 55.2558ZM22.296 56.4743L18.2963 56.4301L22.296 56.4743ZM21.5278 55.4223L22.5631 51.5586L21.5278 55.4223ZM23.7685 63.7786L26.5969 66.6071L23.7685 63.7786ZM23.9075 62.4831L20.4666 64.5228L23.9075 62.4831ZM23.3156 65.6457L26.144 62.8173L23.3156 65.6457ZM23.3156 64.2315L20.4871 61.4031L23.3156 64.2315ZM26.1864 67.1024L29.0148 69.9308L26.1864 67.1024ZM24.7722 67.1024L21.9438 69.9308L24.7722 67.1024ZM27.9371 66.5069L25.8972 69.9477L27.9371 66.5069ZM26.6426 66.6462L23.8142 63.8177L26.6426 66.6462ZM34.9907 68.8864L31.127 69.9217L34.9907 68.8864ZM33.9376 68.1183L33.8893 64.1186L33.9376 68.1183ZM39.0792 68.458L42.9429 67.4227L39.0792 68.458ZM39.4416 66.6455L37.486 63.1561L39.4416 66.6455ZM38.9129 67.8377L35.0492 68.8729L38.9129 67.8377ZM45.0294 61.7205L43.9941 65.5842L45.0294 61.7205ZM43.8388 62.247L40.3521 60.2867L43.8388 62.247ZM45.6532 61.8876L44.6179 65.7513L45.6532 61.8876ZM46.704 57.966L47.7393 54.1023L46.704 57.966ZM47.4111 59.1907L43.5474 58.1554L47.4111 59.1907ZM43.7089 50.7376L47.1508 48.6997L43.7089 50.7376ZM44.3034 47.5732L47.1318 44.7447L44.3034 47.5732ZM44.3034 48.9874L41.4749 46.1589L44.3034 48.9874ZM32.4492 43.7093L28.5855 44.7445L32.4492 43.7093ZM40.9763 46.5727L38.1479 43.7443L40.9763 46.5727ZM39.6814 46.7117L37.6398 50.1514L39.6814 46.7117ZM46.0854 57.8002L45.0502 61.6639L46.0854 57.8002ZM35.1575 69.5088L39.0212 68.4735L35.1575 69.5088ZM28.5275 44.7601L32.3912 43.7248L28.5275 44.7601ZM41.4325 46.1165L38.6041 43.2881L41.4325 46.1165ZM42.8467 46.1165L45.6752 43.2881L42.8467 46.1165ZM38.6041 43.2881L38.1479 43.7443L43.8047 49.4011L44.2609 48.9449L38.6041 43.2881ZM47.1318 44.7447L45.6752 43.2881L40.0183 48.9449L41.4749 50.4016L47.1318 44.7447ZM46.6766 52.2709L47.1318 51.8158L41.4749 46.1589L41.0198 46.6141L46.6766 52.2709ZM40.2669 52.7755C40.6061 53.3483 40.8758 53.9797 41.0593 54.6644L48.7867 52.5939C48.4129 51.1986 47.8575 49.8933 47.1508 48.6997L40.2669 52.7755ZM41.0593 54.6644C41.2432 55.3508 41.3253 56.0341 41.3175 56.7012L49.317 56.7941C49.3331 55.4039 49.1614 53.9924 48.7867 52.5939L41.0593 54.6644ZM47.7393 54.1023L47.1207 53.9365L45.0502 61.6639L45.6687 61.8297L47.7393 54.1023ZM50.7416 62.2158L51.2748 60.226L43.5474 58.1554L43.0142 60.1452L50.7416 62.2158ZM43.9941 65.5842L44.6179 65.7513L46.6885 58.0239L46.0647 57.8568L43.9941 65.5842ZM40.3521 60.2867C39.6841 61.4749 38.7002 62.4757 37.486 63.1561L41.3971 70.1349C43.9259 68.7178 45.9554 66.6443 47.3256 64.2073L40.3521 60.2867ZM42.9429 67.4227L42.7766 66.8024L35.0492 68.8729L35.2155 69.4933L42.9429 67.4227ZM37.4175 74.0796L39.4073 73.5464L37.3368 65.819L35.347 66.3522L37.4175 74.0796ZM31.127 69.9217L31.2938 70.5441L39.0212 68.4735L38.8544 67.8511L31.127 69.9217ZM33.8893 64.1186C32.4991 64.1354 31.1483 63.7605 29.9769 63.0661L25.8972 69.9477C28.2997 71.372 31.0906 72.153 33.986 72.118L33.8893 64.1186ZM29.0148 69.9308L29.471 69.4746L23.8142 63.8177L23.358 64.2739L29.0148 69.9308ZM20.4871 68.4742L21.9438 69.9308L27.6006 64.2739L26.144 62.8173L20.4871 68.4742ZM20.94 60.9502L20.4871 61.4031L26.144 67.0599L26.5969 66.6071L20.94 60.9502ZM27.3484 60.4434C27.0083 59.8697 26.7379 59.2372 26.554 58.5511L18.8266 60.6217C19.2012 62.0196 19.758 63.3273 20.4666 64.5228L27.3484 60.4434ZM26.554 58.5511C26.3705 57.8662 26.2884 57.1843 26.2958 56.5185L18.2963 56.4301C18.2809 57.8175 18.4527 59.226 18.8266 60.6217L26.554 58.5511ZM22.5631 51.5586L21.9417 51.3921L19.8711 59.1195L20.4926 59.286L22.5631 51.5586ZM24.063 55.0663L24.5962 53.0765L16.8687 51.006L16.3356 52.9958L24.063 55.0663ZM20.9219 55.1979L21.5452 55.3649L23.6158 47.6375L22.9925 47.4705L20.9219 55.1979ZM27.2592 52.9325C27.9266 51.7439 28.9099 50.7426 30.1235 50.0615L26.2084 43.085C23.6807 44.5035 21.6523 46.578 20.2836 49.0157L27.2592 52.9325ZM32.5577 44.3462L32.3912 43.7248L24.6638 45.7953L24.8303 46.4167L32.5577 44.3462ZM30.2699 47.399L32.2597 46.8659L30.1892 39.1385L28.1994 39.6716L30.2699 47.399ZM28.5855 44.7445L28.7516 45.3645L36.479 43.294L36.3129 42.674L28.5855 44.7445ZM33.7198 49.097C35.1128 49.0794 36.4664 49.455 37.6398 50.1514L41.723 43.2719C39.3165 41.8436 36.5197 41.0609 33.6183 41.0977L33.7198 49.097ZM28.7516 45.3645C29.395 47.7658 31.5835 49.1241 33.7198 49.097L33.6183 41.0977C34.7851 41.0829 36.0866 41.8293 36.479 43.294L28.7516 45.3645ZM30.1235 50.0615C31.986 49.0164 33.2009 46.7464 32.5577 44.3462L24.8303 46.4167C24.438 44.9527 25.1912 43.6559 26.2084 43.085L30.1235 50.0615ZM21.5452 55.3649C23.9422 56.0071 26.2126 54.7964 27.2592 52.9325L20.2836 49.0157C20.8561 47.9961 22.1542 47.2458 23.6158 47.6375L21.5452 55.3649ZM24.5962 53.0765C24.1673 54.6769 22.5223 55.6267 20.9219 55.1979L22.9925 47.4705C20.3251 46.7557 17.5835 48.3387 16.8687 51.006L24.5962 53.0765ZM21.9417 51.3921C23.5421 51.8209 24.4918 53.466 24.063 55.0663L16.3356 52.9958C15.6209 55.6631 17.2038 58.4048 19.8711 59.1195L21.9417 51.3921ZM26.2958 56.5185C26.3194 54.3847 24.9608 52.2011 22.5631 51.5586L20.4926 59.286C19.0302 58.8942 18.2834 57.5957 18.2963 56.4301L26.2958 56.5185ZM26.5969 66.6071C28.3528 64.8511 28.4369 62.2797 27.3484 60.4434L20.4666 64.5228C19.872 63.5197 19.8691 62.0211 20.94 60.9502L26.5969 66.6071ZM26.144 62.8173C27.3156 63.9889 27.3156 65.8884 26.144 67.0599L20.4871 61.4031C18.5345 63.3557 18.5345 66.5215 20.4871 68.4742L26.144 62.8173ZM23.358 64.2739C24.5296 63.1024 26.4291 63.1024 27.6006 64.2739L21.9438 69.9308C23.8964 71.8834 27.0622 71.8834 29.0148 69.9308L23.358 64.2739ZM29.9769 63.0661C28.1387 61.9764 25.5682 62.0637 23.8142 63.8177L29.471 69.4746C28.4015 70.5442 26.9028 70.5439 25.8972 69.9477L29.9769 63.0661ZM38.8544 67.8511C38.2113 65.4511 36.0246 64.0927 33.8893 64.1186L33.986 72.118C32.8198 72.1321 31.5193 71.3856 31.127 69.9217L38.8544 67.8511ZM35.2155 69.4933C34.7866 67.8929 35.7364 66.2478 37.3368 65.819L39.4073 73.5464C42.0747 72.8317 43.6576 70.09 42.9429 67.4227L35.2155 69.4933ZM37.486 63.1561C35.6221 64.2007 34.4058 66.4715 35.0492 68.8729L42.7766 66.8024C43.1691 68.2672 42.4151 69.5644 41.3971 70.1349L37.486 63.1561ZM46.0647 57.8568C43.6689 57.2148 41.3993 58.4241 40.3521 60.2867L47.3256 64.2073C46.7527 65.2262 45.4551 65.9756 43.9941 65.5842L46.0647 57.8568ZM43.0142 60.1452C43.4431 58.5448 45.0881 57.5951 46.6885 58.0239L44.6179 65.7513C47.2852 66.466 50.0269 64.8831 50.7416 62.2158L43.0142 60.1452ZM45.6687 61.8297C44.0683 61.4008 43.1186 59.7558 43.5474 58.1554L51.2748 60.226C51.9895 57.5587 50.4066 54.817 47.7393 54.1023L45.6687 61.8297ZM41.0198 46.6141C39.2646 48.3693 39.1798 50.9394 40.2669 52.7755L47.1508 48.6997C47.7446 49.7026 47.7471 51.2005 46.6766 52.2709L41.0198 46.6141ZM41.4749 50.4016C40.3034 49.23 40.3034 47.3305 41.4749 46.1589L47.1318 51.8158C49.0844 49.8632 49.0844 46.6973 47.1318 44.7447L41.4749 50.4016ZM32.2597 46.8659C30.6593 47.2947 29.0143 46.3449 28.5855 44.7445L36.3129 42.674C35.5982 40.0067 32.8565 38.4237 30.1892 39.1385L32.2597 46.8659ZM38.1479 43.7443C39.2179 42.6742 40.7173 42.675 41.723 43.2719L37.6398 50.1514C39.4781 51.2426 42.0499 51.1559 43.8047 49.4011L38.1479 43.7443ZM41.3175 56.7012C41.2927 58.836 42.6513 61.0211 45.0502 61.6639L47.1207 53.9365C48.5838 54.3285 49.3305 55.628 49.317 56.7941L41.3175 56.7012ZM35.347 66.3522C36.9474 65.9234 38.5924 66.8731 39.0212 68.4735L31.2938 70.5441C32.0085 73.2114 34.7502 74.7943 37.4175 74.0796L35.347 66.3522ZM32.3912 43.7248C32.8201 45.3252 31.8703 46.9702 30.2699 47.399L28.1994 39.6716C25.532 40.3863 23.9491 43.128 24.6638 45.7953L32.3912 43.7248ZM44.2609 48.9449C43.0894 50.1165 41.1899 50.1165 40.0183 48.9449L45.6752 43.2881C43.7225 41.3355 40.5567 41.3355 38.6041 43.2881L44.2609 48.9449Z" fill="#305680" mask="url(#path-3-outside-1_10346_26576)"/>
<path fill-rule="evenodd" clip-rule="evenodd" d="M26.815 58.483C27.8501 62.3462 31.821 64.6388 35.6842 63.6036C39.5473 62.5685 41.8399 58.5976 40.8048 54.7344C39.7696 50.8712 35.7988 48.5786 31.9356 49.6138C28.0724 50.6489 25.7798 54.6198 26.815 58.483ZM30.8663 57.3976C31.3023 59.0248 32.9749 59.9905 34.6022 59.5545C36.2294 59.1185 37.1951 57.4459 36.759 55.8187C36.323 54.1914 34.6504 53.2258 33.0232 53.6618C31.396 54.0978 30.4303 55.7704 30.8663 57.3976Z" fill="#2A7DEC"/>
<path fill-rule="evenodd" clip-rule="evenodd" d="M57.8965 18.0242C57.6804 18.8308 56.9825 19.4039 56.164 19.5691C55.6288 19.6771 55.099 19.8182 54.5779 19.9925C53.7865 20.2572 52.8964 20.1096 52.3064 19.5196L52.2269 19.4401C51.4459 18.6591 50.1796 18.6591 49.3985 19.4401L45.6408 23.1979C44.8598 23.9789 44.8598 25.2452 45.6408 26.0263L45.7188 26.1043C46.309 26.6945 46.4565 27.585 46.1915 28.3764C46.0168 28.8984 45.8753 29.4291 45.7671 29.9651C45.6018 30.7836 45.0287 31.4813 44.2222 31.6974L44.1118 31.727C43.0448 32.0129 42.4117 33.1096 42.6976 34.1765L44.073 39.3097C44.3589 40.3766 45.4555 41.0098 46.5225 40.7239L46.633 40.6943C47.4384 40.4785 48.2826 40.7949 48.8351 41.4193C49.016 41.6238 49.2044 41.8241 49.4001 42.0198C49.5952 42.215 49.7949 42.4028 49.9988 42.5833C50.623 43.1358 50.9393 43.9799 50.7236 44.7851L50.6936 44.8968C50.4078 45.9637 51.0409 47.0604 52.1079 47.3463L57.241 48.7217C58.3079 49.0076 59.4046 48.3744 59.6905 47.3075L59.7198 47.1981C59.9359 46.3915 60.6339 45.8184 61.4525 45.6533C61.9893 45.545 62.5207 45.4033 63.0434 45.2283C63.8349 44.9634 64.7254 45.1108 65.3156 45.701L65.3928 45.7783C66.1739 46.5593 67.4402 46.5593 68.2212 45.7783L71.979 42.0206C72.76 41.2395 72.76 39.9732 71.979 39.1922L71.9003 39.1135C71.3102 38.5235 71.1627 37.6333 71.4273 36.842C71.6017 36.3205 71.743 35.7904 71.851 35.2549C72.0161 34.4363 72.5893 33.7384 73.3959 33.5222L73.5028 33.4936C74.5698 33.2077 75.2029 32.111 74.917 31.0441L73.5416 25.911C73.2557 24.844 72.1591 24.2109 71.0921 24.4967L70.983 24.526C70.1778 24.7417 69.3337 24.4254 68.7812 23.8012C68.6007 23.5972 68.4128 23.3975 68.2176 23.2023C68.0222 23.0068 67.8222 22.8188 67.6179 22.638C66.9936 22.0855 66.6772 21.2414 66.893 20.4361L66.9227 20.3252C67.2086 19.2583 66.5754 18.1616 65.5085 17.8757L60.3754 16.5003C59.3085 16.2144 58.2118 16.8476 57.9259 17.9145L57.8965 18.0242ZM55.5174 35.9022C57.3352 37.72 60.2824 37.72 62.1002 35.9022C63.9181 34.0844 63.9181 31.1371 62.1002 29.3193C60.2824 27.5015 57.3352 27.5015 55.5174 29.3193C53.6996 31.1371 53.6996 34.0844 55.5174 35.9022Z" fill="#2A7DEC"/>
</g>
</g>
<path d="M0.75 24C0.75 11.1594 11.1594 0.75 24 0.75H68C80.8406 0.75 91.25 11.1594 91.25 24V66C91.25 78.8406 80.8406 89.25 68 89.25H24C11.1594 89.25 0.75 78.8406 0.75 66V24Z" stroke="#3E9AF8" stroke-width="1.5"/>
<defs>
<filter id="filter0_d_10346_26576" x="-4" y="5" width="100" height="100" filterUnits="userSpaceOnUse" color-interpolation-filters="sRGB">
<feFlood flood-opacity="0" result="BackgroundImageFix"/>
<feColorMatrix in="SourceAlpha" type="matrix" values="0 0 0 0 0 0 0 0 0 0 0 0 0 0 0 0 0 0 127 0" result="hardAlpha"/>
<feOffset dy="10"/>
<feGaussianBlur stdDeviation="10"/>
<feColorMatrix type="matrix" values="0 0 0 0 0 0 0 0 0 0 0 0 0 0 0 0 0 0 0.1 0"/>
<feBlend mode="normal" in2="BackgroundImageFix" result="effect1_dropShadow_10346_26576"/>
<feBlend mode="normal" in="SourceGraphic" in2="effect1_dropShadow_10346_26576" result="shape"/>
</filter>
<clipPath id="clip0_10346_26576">
<path d="M0 24C0 10.7452 10.7452 0 24 0H68C81.2548 0 92 10.7452 92 24V66C92 79.2548 81.2548 90 68 90H24C10.7452 90 0 79.2548 0 66V24Z" fill="white"/>
</clipPath>
</defs>
</svg>

<svg width="92" height="90" fill="none" xmlns="http://www.w3.org/2000/svg"><g filter="url(#b)" clip-path="url(#a)"><mask id="c" maskUnits="userSpaceOnUse" x="12.401" y="34.846" width="43.125" height="43.832" fill="#000"><path fill="#fff" d="M12.401 34.846h43.125v43.832H12.401z"/><path fill-rule="evenodd" clip-rule="evenodd" d="M39.681 46.712c.417.247.953.203 1.295-.14l.456-.456a1 1 0 0 1 1.415 0l1.456 1.457a1 1 0 0 1 0 1.414l-.455.456c-.342.342-.386.878-.14 1.295a11.52 11.52 0 0 1 1.215 2.891c.28 1.043.406 2.09.394 3.119-.005.484.3.927.768 1.052l.619.166a1 1 0 0 1 .707 1.225l-.533 1.99a1 1 0 0 1-1.225.707l-.624-.167c-.467-.126-.953.104-1.19.526a11.495 11.495 0 0 1-4.397 4.398c-.423.238-.654.724-.53 1.193l.167.62a1 1 0 0 1-.707 1.225l-1.99.533a1 1 0 0 1-1.224-.707l-.167-.623c-.126-.468-.569-.774-1.053-.768a11.496 11.496 0 0 1-6-1.611c-.417-.247-.953-.203-1.295.14l-.457.455a1 1 0 0 1-1.414 0l-1.456-1.456a1 1 0 0 1 0-1.415l.453-.452c.342-.343.386-.88.139-1.296a11.517 11.517 0 0 1-1.218-2.897 11.522 11.522 0 0 1-.394-3.112c.005-.484-.3-.926-.768-1.052l-.622-.166a1 1 0 0 1-.707-1.225l.534-1.99a1 1 0 0 1 1.224-.707l.623.167c.468.126.954-.105 1.191-.527a11.496 11.496 0 0 1 4.395-4.4c.423-.238.654-.724.528-1.192l-.166-.622a1 1 0 0 1 .707-1.225l1.99-.533a1 1 0 0 1 1.224.707l.166.62c.126.468.57.774 1.054.768a11.496 11.496 0 0 1 6.012 1.615Z"/></mask><path d="m32.615 44.33-3.863 1.035 3.863-1.036ZM22.58 51.5l-1.035 3.864L22.58 51.5Zm1.191-.527-3.487-1.958 3.487 1.958Zm-3.038 1.067 3.863 1.036-3.863-1.036Zm1.224-.707 1.035-3.864-1.035 3.864Zm-1.05 3.922L19.87 59.12l1.035-3.864Zm1.389 1.218-4-.044 4 .044Zm-.768-1.052 1.035-3.863-1.035 3.863Zm2.24 8.357 2.829 2.828-2.829-2.828Zm.14-1.296-3.441 2.04 3.44-2.04Zm-.592 3.163 2.828-2.829-2.828 2.829Zm0-1.415-2.829-2.828 2.829 2.828Zm2.87 2.871 2.829 2.829-2.829-2.829Zm-1.414 0-2.828 2.829 2.828-2.829Zm3.165-.595-2.04 3.44 2.04-3.44Zm-1.294.14-2.829-2.83 2.829 2.83Zm8.348 2.24-3.864 1.035 3.864-1.036Zm-1.053-.769-.049-4 .049 4Zm5.141.34 3.864-1.035-3.864 1.035Zm.363-1.813-1.956-3.489 1.956 3.49Zm-.53 1.193-3.863 1.035 3.864-1.035Zm6.117-6.117-1.035 3.863 1.035-3.864Zm-1.19.526-3.487-1.96 3.487 1.96Zm1.814-.36-1.035 3.864 1.035-3.863Zm1.051-3.921 1.035-3.864-1.035 3.864Zm.707 1.225-3.864-1.036 3.864 1.036Zm-3.702-8.453L47.15 48.7l-3.442 2.038Zm.594-3.165 2.829-2.828-2.829 2.828Zm0 1.414-2.828-2.828 2.828 2.828ZM32.45 43.71l-3.863 1.035 3.863-1.035Zm8.527 2.864-2.828-2.829 2.828 2.829Zm-1.295.139-2.041 3.44 2.041-3.44ZM46.085 57.8l-1.035 3.864 1.035-3.864ZM35.157 69.51l3.864-1.035-3.864 1.035Zm-6.63-24.749 3.864-1.035-3.863 1.035Zm12.905 1.357-2.828-2.829 2.828 2.829Zm1.415 0 2.828-2.829-2.828 2.829Zm-4.243-2.829-.456.456 5.657 5.657.456-.456-5.657-5.657Zm8.528 1.457-1.457-1.457-5.657 5.657 1.457 1.457 5.657-5.657Zm-.455 7.526.455-.455-5.657-5.657-.455.455 5.657 5.657Zm-6.41.505c.34.572.609 1.204.792 1.888l7.728-2.07c-.374-1.395-.93-2.7-1.636-3.894l-6.884 4.075Zm.792 1.888c.184.687.266 1.37.259 2.037l7.999.093a15.521 15.521 0 0 0-.53-4.2l-7.728 2.07Zm6.68-.562-.618-.165-2.07 7.727.618.166 2.07-7.728Zm3.003 8.114.533-1.99-7.728-2.07-.533 1.99 7.728 2.07Zm-6.748 3.368.624.167 2.07-7.727-.623-.167-2.07 7.727Zm-3.642-5.297a7.496 7.496 0 0 1-2.866 2.87l3.911 6.978a15.496 15.496 0 0 0 5.929-5.928l-6.974-3.92Zm2.59 7.136-.165-.62-7.728 2.07.166.62 7.728-2.07Zm-5.525 6.657 1.99-.534-2.07-7.727-1.99.533 2.07 7.728Zm-6.29-4.158.167.622 7.727-2.07-.167-.623-7.727 2.07Zm2.762-5.803a7.497 7.497 0 0 1-3.912-1.053l-4.08 6.882a15.497 15.497 0 0 0 8.089 2.17l-.097-8Zm-4.874 5.812.456-.456-5.657-5.657-.456.456 5.657 5.657Zm-8.528-1.457 1.457 1.457 5.657-5.657-1.457-1.457-5.657 5.657Zm.453-7.524-.453.453 5.657 5.657.453-.453-5.657-5.657Zm6.408-.507a7.52 7.52 0 0 1-.794-1.892l-7.727 2.07a15.522 15.522 0 0 0 1.64 3.902l6.881-4.08Zm-.794-1.892a7.518 7.518 0 0 1-.258-2.032l-8-.089a15.519 15.519 0 0 0 .53 4.192l7.728-2.07Zm-3.99-6.992-.622-.167-2.07 7.727.62.167 2.071-7.727Zm1.499 3.507.533-1.99-7.727-2.07-.533 1.99 7.727 2.07Zm-3.141.132.623.167 2.07-7.727-.622-.167-2.071 7.727Zm6.337-2.266a7.497 7.497 0 0 1 2.864-2.87l-3.915-6.977a15.496 15.496 0 0 0-5.924 5.93l6.975 3.917Zm5.299-8.586-.167-.621-7.727 2.07.166.622 7.728-2.07ZM30.27 47.4l1.99-.533-2.07-7.727-1.99.533 2.07 7.727Zm-1.684-2.654.166.62 7.727-2.071-.166-.62-7.728 2.07Zm5.134 4.352a7.497 7.497 0 0 1 3.92 1.054l4.083-6.88a15.497 15.497 0 0 0-8.105-2.173l.102 7.999Zm-4.968-3.733c.643 2.402 2.832 3.76 4.968 3.733l-.102-8a2.937 2.937 0 0 1 2.861 2.197l-7.727 2.07Zm1.372 4.698c1.862-1.046 3.077-3.316 2.434-5.716l-7.728 2.07a2.937 2.937 0 0 1 1.378-3.331l3.916 6.977Zm-8.579 5.303c2.397.642 4.668-.569 5.714-2.433l-6.975-3.916a2.938 2.938 0 0 1 3.332-1.378l-2.07 7.727Zm3.051-2.288a3 3 0 0 1-3.674 2.12l2.07-7.727a5 5 0 0 0-6.123 3.536l7.727 2.07Zm-2.654-1.685a3 3 0 0 1 2.121 3.674l-7.727-2.07a5 5 0 0 0 3.535 6.123l2.07-7.727Zm4.354 5.127c.023-2.134-1.335-4.318-3.733-4.96l-2.07 7.727a2.937 2.937 0 0 1-2.197-2.856l8 .089Zm.3 10.088c1.757-1.756 1.84-4.327.752-6.164l-6.881 4.08a2.937 2.937 0 0 1 .473-3.573l5.657 5.657Zm-.452-3.79a3 3 0 0 1 0 4.243l-5.657-5.657a5 5 0 0 0 0 7.071l5.657-5.657Zm-2.786 1.457a3 3 0 0 1 4.243 0l-5.657 5.657a5 5 0 0 0 7.07 0l-5.656-5.657Zm6.619-1.208c-1.838-1.09-4.409-1.002-6.163.752l5.657 5.657a2.937 2.937 0 0 1-3.574.473l4.08-6.882Zm8.877 4.785c-.643-2.4-2.83-3.758-4.965-3.732l.097 7.999a2.937 2.937 0 0 1-2.859-2.196l7.727-2.07Zm-3.639 1.642a3 3 0 0 1 2.122-3.674l2.07 7.727a5 5 0 0 0 3.536-6.123l-7.727 2.07Zm2.271-6.337c-1.864 1.045-3.08 3.316-2.437 5.717l7.728-2.07a2.937 2.937 0 0 1-1.38 3.332l-3.911-6.979Zm8.579-5.3c-2.396-.641-4.666.568-5.713 2.43l6.974 3.921a2.938 2.938 0 0 1-3.332 1.377l2.07-7.727Zm-3.05 2.29a3 3 0 0 1 3.673-2.122l-2.07 7.727a5 5 0 0 0 6.124-3.535l-7.728-2.07Zm2.654 1.684a3 3 0 0 1-2.122-3.675l7.728 2.071a5 5 0 0 0-3.536-6.124l-2.07 7.728Zm-4.65-15.216c-1.754 1.755-1.84 4.325-.752 6.162L47.15 48.7a2.937 2.937 0 0 1-.474 3.57l-5.657-5.656Zm.456 3.788a3 3 0 0 1 0-4.243l5.657 5.657a5 5 0 0 0 0-7.071l-5.657 5.657Zm-9.215-3.536a3 3 0 0 1-3.674-2.121l7.727-2.071a5 5 0 0 0-6.124-3.535l2.07 7.727Zm5.888-3.122a2.938 2.938 0 0 1 3.575-.472l-4.083 6.88c1.838 1.09 4.41 1.004 6.165-.75l-5.657-5.658Zm3.17 12.957c-.025 2.135 1.333 4.32 3.732 4.963l2.07-7.727a2.937 2.937 0 0 1 2.197 2.857l-8-.093Zm-5.971 9.651a3 3 0 0 1 3.674 2.121l-7.727 2.071a5 5 0 0 0 6.123 3.536l-2.07-7.728Zm-2.956-22.627a3 3 0 0 1-2.121 3.674l-2.07-7.727a5 5 0 0 0-3.536 6.123l7.727-2.07Zm11.87 5.22a3 3 0 0 1-4.243 0l5.657-5.657a5 5 0 0 0-7.07 0l5.656 5.657Z" fill="#305680" mask="url(#c)"/><path fill-rule="evenodd" clip-rule="evenodd" d="M26.815 58.483a7.242 7.242 0 1 0 13.99-3.748 7.242 7.242 0 0 0-13.99 3.748Zm4.051-1.085a3.05 3.05 0 1 0 5.893-1.58 3.05 3.05 0 0 0-5.893 1.58ZM57.897 18.024c-.217.807-.914 1.38-1.733 1.545-.535.108-1.065.25-1.586.424-.792.264-1.682.117-2.272-.473l-.08-.08a2 2 0 0 0-2.828 0l-3.757 3.758a2 2 0 0 0 0 2.828l.078.078c.59.59.737 1.481.472 2.272a13.295 13.295 0 0 0-.424 1.59c-.165.818-.738 1.515-1.545 1.731l-.11.03a2 2 0 0 0-1.414 2.45l1.375 5.133a2 2 0 0 0 2.45 1.414l.11-.03c.805-.216 1.65.1 2.202.725A13.484 13.484 0 0 0 50 42.583c.624.553.94 1.397.725 2.202l-.03.112a2 2 0 0 0 1.414 2.45l5.133 1.375a2 2 0 0 0 2.45-1.415l.029-.109c.216-.806.914-1.38 1.733-1.545a13.29 13.29 0 0 0 1.59-.425c.792-.265 1.682-.117 2.273.473l.077.077a2 2 0 0 0 2.828 0l3.758-3.757a2 2 0 0 0 0-2.829l-.079-.078c-.59-.59-.737-1.48-.473-2.272.175-.521.316-1.052.424-1.587.165-.819.738-1.517 1.545-1.733l.107-.028a2 2 0 0 0 1.414-2.45l-1.375-5.133a2 2 0 0 0-2.45-1.414l-.109.029c-.805.216-1.65-.1-2.202-.725a13.473 13.473 0 0 0-1.163-1.163c-.624-.553-.94-1.397-.725-2.202l.03-.11a2 2 0 0 0-1.415-2.45L60.375 16.5a2 2 0 0 0-2.45 1.415l-.028.11Zm-2.38 17.878A4.655 4.655 0 1 0 62.1 29.32a4.655 4.655 0 0 0-6.583 6.583Z" fill="#2A7DEC"/></g><path d="M.75 24C.75 11.16 11.16.75 24 .75h44C80.84.75 91.25 11.16 91.25 24v42c0 12.84-10.41 23.25-23.25 23.25H24C11.16 89.25.75 78.84.75 66V24Z" stroke="#3E9AF8" stroke-width="1.5"/><defs><clipPath id="a"><path d="M0 24C0 10.745 10.745 0 24 0h44c13.255 0 24 10.745 24 24v42c0 13.255-10.745 24-24 24H24C10.745 90 0 79.255 0 66V24Z" fill="#fff"/></clipPath><filter id="b" x="-4" y="5" width="100" height="100" filterUnits="userSpaceOnUse" color-interpolation-filters="sRGB"><feFlood flood-opacity="0" result="BackgroundImageFix"/><feColorMatrix in="SourceAlpha" values="0 0 0 0 0 0 0 0 0 0 0 0 0 0 0 0 0 0 127 0" result="hardAlpha"/><feOffset dy="10"/><feGaussianBlur stdDeviation="10"/><feColorMatrix values="0 0 0 0 0 0 0 0 0 0 0 0 0 0 0 0 0 0 0.1 0"/><feBlend in2="BackgroundImageFix" result="effect1_dropShadow_10346_26576"/><feBlend in="SourceGraphic" in2="effect1_dropShadow_10346_26576" result="shape"/></filter></defs></svg>
